illustrations/assets/Success/il_axis_success_dark.svg

<svg xmlns="http://www.w3.org/2000/svg" width="231" height="179" fill="none" viewBox="0 0 231 179">
  <path fill="#595959" d="m198.474 77.6311 2.085-.9274c.695-.2319.695-1.1593 0-1.3912l-2.085-.9274c-2.549-1.1593-4.634-3.2461-5.793-5.7966l-.927-2.0867c-.231-.6956-1.158-.6956-1.39 0l-.927 2.0867c-1.158 2.5505-3.243 4.6373-5.792 5.7966l-2.085.9274c-.695.2319-.695 1.1593 0 1.3912l2.085.9274c2.549 1.1593 4.634 3.2461 5.792 5.7965l.927 2.0868c.232.6956 1.159.6956 1.39 0l.927-2.0868c.927-2.5504 3.012-4.6372 5.793-5.7965ZM192.285 111.078l1.39-.696c.463-.232.463-.696 0-.928l-1.39-.463c-1.854-.696-3.244-2.087-3.939-3.942l-.695-1.391c-.232-.464-.695-.464-.927 0l-.463 1.391c-.927 1.855-2.317 3.246-3.939 3.942l-1.622.695c-.231 0-.231.696 0 .696l1.39.696c1.854.695 3.244 2.086 4.171 3.941l.695 1.391c.232.464.695.464.927 0l.463-1.391c.695-1.855 2.085-3.246 3.939-3.941ZM48.3866 135.959l2.0852-.927c.6951-.232.6951-1.159 0-1.391l-2.0852-.928c-2.5487-1.159-4.6339-3.246-5.7924-5.796l-.9267-2.087c-.2317-.696-1.1585-.696-1.3902 0l-.9268 2.087c-1.1585 2.55-3.2437 4.637-5.7923 5.796l-2.0853.928c-.6951.232-.6951 1.159 0 1.391l2.0853.927c2.5486 1.16 4.6338 3.246 5.7923 5.797l.9268 2.087c.2317.695 1.1585.695 1.3902 0l.9267-2.087c.9268-2.551 3.0121-4.637 5.7924-5.797ZM49.2267 32.3345l1.3902-.6956c.4634-.2319.4634-.6956 0-.9275l-1.3902-.4637c-1.8535-.6956-3.2437-2.0867-3.9388-3.9416l-.695-1.3912c-.2317-.4637-.6951-.4637-.9268 0l-.4634 1.3912c-.9268 1.8549-2.317 3.246-3.9388 3.9416l-1.6219.6956c-.2317 0-.2317.6956 0 .6956l1.3902.6956c1.8535.6956 3.2437 2.0867 4.1705 3.9416l.6951 1.3912c.2317.4637.6951.4637.9267 0l.4634-1.3912c.6951-1.8549 2.0853-3.246 3.9388-3.9416ZM67.0664 15.9704l1.1585-.4637c.2317-.2319.2317-.4637 0-.6956l-1.1585-.4637c-1.3902-.4637-2.3169-1.623-3.012-3.0142l-.4634-1.1593c-.2317-.2319-.4634-.2319-.6951 0l-.4634 1.1593c-.4634 1.3912-1.6218 2.3186-3.012 3.0142l-.6951.4637c-.4634.2319-.4634.6956 0 .6956l1.1585.4637c1.3901.4637 2.3169 1.623 3.012 3.0142l.4634 1.1593c.2317.2319.4634.2319.6951 0l.4634-1.1593c.2317-1.3912 1.3901-2.5505 2.5486-3.0142Z"/>
  <g filter="url(#filter0_d_3871_354047)">
    <path fill="#fff" d="M116.072 146.8c30.856 0 55.87-25.014 55.87-55.8699 0-30.8562-25.014-55.87-55.87-55.87-30.8565 0-55.8704 25.0138-55.8704 55.87 0 30.8559 25.0139 55.8699 55.8704 55.8699Z"/>
  </g>
  <path fill="url(#paint0_linear_3871_354047)" d="M116.072 146.8c30.856 0 55.87-25.014 55.87-55.8699 0-30.8562-25.014-55.87-55.87-55.87-30.8565 0-55.8704 25.0138-55.8704 55.87 0 30.8559 25.0139 55.8699 55.8704 55.8699Z"/>
  <path fill="#656565" d="M106.258 116.517c-1.446 0-2.807-.532-3.912-1.683L83.5473 95.2594c-2.1265-2.2143-2.1265-5.9344 0-8.1487 2.1265-2.2143 5.699-2.2143 7.8255 0l14.8852 15.5003 35.045-36.4035c2.126-2.2143 5.699-2.2143 7.825 0 2.127 2.2143 2.127 5.9344 0 8.1487l-38.957 40.4778c-1.021 1.151-2.467 1.683-3.913 1.683Z"/>
  <defs>
    <linearGradient id="paint0_linear_3871_354047" x1="116.072" x2="116.072" y1="35.0601" y2="146.8" gradientUnits="userSpaceOnUse">
      <stop stop-color="#FAFAFA"/>
      <stop offset=".8281" stop-color="#F5F2EC"/>
    </linearGradient>
    <filter id="filter0_d_3871_354047" width="154.386" height="154.386" x="38.8785" y="24.3985" color-interpolation-filters="sRGB" filterUnits="userSpaceOnUse">
      <feFlood flood-opacity="0" result="BackgroundImageFix"/>
      <feColorMatrix in="SourceAlpha" result="hardAlpha" values="0 0 0 0 0 0 0 0 0 0 0 0 0 0 0 0 0 0 127 0"/>
      <feOffset dy="10.6615"/>
      <feGaussianBlur stdDeviation="10.6615"/>
      <feColorMatrix values="0 0 0 0 0.482733 0 0 0 0 0.482733 0 0 0 0 0.482733 0 0 0 0.27 0"/>
      <feBlend in2="BackgroundImageFix" result="effect1_dropShadow_3871_354047"/>
      <feBlend in="SourceGraphic" in2="effect1_dropShadow_3871_354047" result="shape"/>
    </filter>
  </defs>
</svg>

<svg width="231" height="179" viewBox="0 0 231 179" fill="none" xmlns="http://www.w3.org/2000/svg">
<path d="M198.474 77.6312L200.559 76.7038C201.254 76.4719 201.254 75.5445 200.559 75.3126L198.474 74.3852C195.925 73.2259 193.84 71.1391 192.681 68.5887L191.754 66.5019C191.523 65.8063 190.596 65.8063 190.364 66.5019L189.437 68.5887C188.279 71.1391 186.194 73.2259 183.645 74.3852L181.56 75.3126C180.865 75.5445 180.865 76.4719 181.56 76.7038L183.645 77.6312C186.194 78.7905 188.279 80.8773 189.437 83.4277L190.364 85.5145C190.596 86.2101 191.523 86.2101 191.754 85.5145L192.681 83.4277C193.608 80.8773 195.693 78.7905 198.474 77.6312Z" fill="#595959"/>
<path d="M192.285 111.078L193.675 110.382C194.138 110.15 194.138 109.686 193.675 109.455L192.285 108.991C190.431 108.295 189.041 106.904 188.346 105.049L187.651 103.658C187.419 103.194 186.956 103.194 186.724 103.658L186.261 105.049C185.334 106.904 183.944 108.295 182.322 108.991L180.7 109.686C180.469 109.686 180.469 110.382 180.7 110.382L182.09 111.078C183.944 111.773 185.334 113.164 186.261 115.019L186.956 116.41C187.188 116.874 187.651 116.874 187.883 116.41L188.346 115.019C189.041 113.164 190.431 111.773 192.285 111.078Z" fill="#595959"/>
<path d="M48.3866 135.959L50.4718 135.032C51.1669 134.8 51.1669 133.873 50.4718 133.641L48.3866 132.713C45.8379 131.554 43.7527 129.467 42.5942 126.917L41.6674 124.83C41.4358 124.134 40.509 124.134 40.2773 124.83L39.3505 126.917C38.192 129.467 36.1068 131.554 33.5582 132.713L31.4729 133.641C30.7778 133.873 30.7778 134.8 31.4729 135.032L33.5582 135.959C36.1068 137.119 38.192 139.205 39.3505 141.756L40.2773 143.843C40.509 144.538 41.4358 144.538 41.6674 143.843L42.5942 141.756C43.521 139.205 45.6063 137.119 48.3866 135.959Z" fill="#595959"/>
<path d="M49.2267 32.3345L50.6169 31.6389C51.0803 31.407 51.0803 30.9433 50.6169 30.7114L49.2267 30.2477C47.3732 29.5521 45.983 28.161 45.2879 26.3061L44.5929 24.9149C44.3612 24.4512 43.8978 24.4512 43.6661 24.9149L43.2027 26.3061C42.2759 28.161 40.8857 29.5521 39.2639 30.2477L37.642 30.9433C37.4103 30.9433 37.4103 31.6389 37.642 31.6389L39.0322 32.3345C40.8857 33.0301 42.2759 34.4212 43.2027 36.2761L43.8978 37.6673C44.1295 38.131 44.5929 38.131 44.8245 37.6673L45.2879 36.2761C45.983 34.4212 47.3732 33.0301 49.2267 32.3345Z" fill="#595959"/>
<path d="M67.0664 15.9704L68.2249 15.5067C68.4566 15.2748 68.4566 15.043 68.2249 14.8111L67.0664 14.3474C65.6762 13.8837 64.7495 12.7244 64.0544 11.3332L63.591 10.1739C63.3593 9.94203 63.1276 9.94203 62.8959 10.1739L62.4325 11.3332C61.9691 12.7244 60.8107 13.6518 59.4205 14.3474L58.7254 14.8111C58.262 15.043 58.262 15.5067 58.7254 15.5067L59.8839 15.9704C61.274 16.4341 62.2008 17.5934 62.8959 18.9846L63.3593 20.1439C63.591 20.3758 63.8227 20.3758 64.0544 20.1439L64.5178 18.9846C64.7495 17.5934 65.9079 16.4341 67.0664 15.9704Z" fill="#595959"/>
<g filter="url(#filter0_d_3871_354047)">
<path d="M116.072 146.8C146.928 146.8 171.942 121.786 171.942 90.9301C171.942 60.0739 146.928 35.0601 116.072 35.0601C85.2155 35.0601 60.2016 60.0739 60.2016 90.9301C60.2016 121.786 85.2155 146.8 116.072 146.8Z" fill="white"/>
</g>
<path d="M116.072 146.8C146.928 146.8 171.942 121.786 171.942 90.9301C171.942 60.0739 146.928 35.0601 116.072 35.0601C85.2155 35.0601 60.2016 60.0739 60.2016 90.9301C60.2016 121.786 85.2155 146.8 116.072 146.8Z" fill="url(#paint0_linear_3871_354047)"/>
<path d="M106.258 116.517C104.812 116.517 103.451 115.985 102.346 114.834L83.5473 95.2593C81.4208 93.045 81.4208 89.3249 83.5473 87.1106C85.6738 84.8962 89.2463 84.8962 91.3728 87.1106L106.258 102.611L141.303 66.2074C143.429 63.9931 147.002 63.9931 149.128 66.2074C151.255 68.4217 151.255 72.1418 149.128 74.3561L110.171 114.834C109.15 115.985 107.704 116.517 106.258 116.517Z" fill="#656565"/>
<defs>
<filter id="filter0_d_3871_354047" x="38.8785" y="24.3985" width="154.386" height="154.386" filterUnits="userSpaceOnUse" color-interpolation-filters="sRGB">
<feFlood flood-opacity="0" result="BackgroundImageFix"/>
<feColorMatrix in="SourceAlpha" type="matrix" values="0 0 0 0 0 0 0 0 0 0 0 0 0 0 0 0 0 0 127 0" result="hardAlpha"/>
<feOffset dy="10.6615"/>
<feGaussianBlur stdDeviation="10.6615"/>
<feColorMatrix type="matrix" values="0 0 0 0 0.482733 0 0 0 0 0.482733 0 0 0 0 0.482733 0 0 0 0.27 0"/>
<feBlend mode="normal" in2="BackgroundImageFix" result="effect1_dropShadow_3871_354047"/>
<feBlend mode="normal" in="SourceGraphic" in2="effect1_dropShadow_3871_354047" result="shape"/>
</filter>
<linearGradient id="paint0_linear_3871_354047" x1="116.072" y1="35.0601" x2="116.072" y2="146.8" gradientUnits="userSpaceOnUse">
<stop stop-color="#FAFAFA"/>
<stop offset="0.828125" stop-color="#F5F2EC"/>
</linearGradient>
</defs>
</svg>
